X:503
T:Reel 503
M:4/4
K:Gmaj
L:1/8
dc|BGG2 dGG2|BGBd edcB|cAeA eAcd|cBAG FGAc|BGG2 dGG2|BGBG egfg|abc'b agfa|gbfd e2|dc|BGdG eGdG|BGdG edcB|cAeA eAcB|Addc cedc|BGdG eGdG|BGdG eGdB|cdef gedc|BGAF G2|
